medi/img/logo.svg

<svg width="189" height="56" viewBox="0 0 189 56" fill="none" xmlns="http://www.w3.org/2000/svg">
<path d="M39.4545 54.0943L37.5248 13.6301C37.4895 12.887 37.9671 12.26 38.5698 12.26H42.4283C43.031 12.26 43.5086 12.887 43.4734 13.6301L41.5437 54.0943C41.4679 55.718 39.532 55.718 39.4545 54.0943Z" fill="url(#paint0_linear_12_136)"/>
<path d="M40.4995 10.0047C43.1546 10.0047 45.307 7.83849 45.307 5.1663C45.307 2.49412 43.1546 0.327881 40.4995 0.327881C37.8444 0.327881 35.692 2.49412 35.692 5.1663C35.692 7.83849 37.8444 10.0047 40.4995 10.0047Z" fill="url(#paint1_radial_12_136)"/>
<path d="M43.5835 13.8098H37.4155C36.7828 13.8098 36.27 13.2937 36.27 12.657C36.27 12.0203 36.7828 11.5042 37.4155 11.5042H43.5835C44.2161 11.5042 44.729 12.0203 44.729 12.657C44.729 13.2937 44.2161 13.8098 43.5835 13.8098Z" fill="#00868A"/>
<path d="M80.5308 24.6094L51.9791 13.3771C51.7121 13.2716 51.4072 13.3283 51.2002 13.5279C48.4131 16.2131 44.2541 17.0325 41.1261 17.2321C40.9172 17.2454 40.7084 17.2525 40.4996 17.2525V26.0194C42.5051 26.0194 44.5114 26.6269 46.2323 27.8409C47.5637 28.7801 48.8537 29.7449 49.9895 30.6211C52.6514 32.6732 56.1161 33.3489 59.3481 32.4515C59.9587 32.2821 60.09 31.4698 59.5649 31.1141L51.0927 25.6346C50.3217 25.1122 51.0143 23.9266 51.8425 24.3514L62.8154 30.9811C62.9784 31.0645 63.1661 31.0849 63.3423 31.037L69.1182 29.4869C69.7764 29.3104 69.869 28.4094 69.261 28.1008L54.96 21.8532C54.122 21.4284 54.6807 20.155 55.5574 20.4911L73.4614 27.9855C73.6341 28.052 73.8253 28.0502 73.9971 27.9819L80.5308 25.9982C81.1564 25.7481 81.1564 24.8577 80.5308 24.6094Z" fill="url(#paint2_linear_12_136)"/>
<path d="M39.8731 17.2321C36.745 17.0316 32.586 16.2131 29.799 13.5279C29.5919 13.3283 29.287 13.2716 29.02 13.3771L0.469257 24.6094C-0.156354 24.8568 -0.156354 25.7481 0.468376 25.9964L7.00205 27.9802C7.17387 28.0485 7.36508 28.0502 7.53778 27.9837L25.4417 20.4893C26.3184 20.1532 26.8762 21.4267 26.0391 21.8515L11.7382 28.099C11.1302 28.4076 11.2227 29.3086 11.8809 29.4851L17.6568 31.0352C17.833 31.0822 18.0216 31.0627 18.1837 30.9794L29.1566 24.3496C29.9849 23.9248 30.6783 25.1105 29.9065 25.6328L21.4343 31.1124C20.9091 31.468 21.0404 32.2803 21.651 32.4497C24.8839 33.3471 28.3477 32.6714 31.0096 30.6193C32.1463 29.7432 33.4354 28.7783 34.7668 27.8392C36.4877 26.6251 38.4941 26.0177 40.4995 26.0177V17.2507C40.2907 17.2516 40.0819 17.2454 39.8731 17.2321Z" fill="url(#paint3_linear_12_136)"/>
<path d="M38.4421 32.8658C37.1679 32.7319 35.959 32.5988 34.7774 32.3461C32.6151 31.8832 30.9814 31.0239 30.2941 29.989C29.2905 28.477 30.4184 26.5287 32.0503 25.3864C32.5093 25.0645 32.623 24.4296 32.3032 23.9667C31.9833 23.5046 31.3524 23.3902 30.8924 23.7122C28.0437 25.7066 27.0833 28.8228 28.6085 31.1223C29.88 33.0387 32.4353 33.9308 34.3553 34.3414C34.4575 34.3636 34.5606 34.3831 34.6628 34.4035C35.8013 33.8297 37.1318 33.5814 38.4659 33.3846L38.4421 32.8658Z" fill="url(#paint4_linear_12_136)"/>
<path d="M42.0415 43.684C42.9975 43.9704 43.6293 44.3659 43.832 44.8315C43.9756 45.1614 43.8029 45.5746 43.402 45.8602C43.0257 46.128 42.4697 46.277 41.9172 46.2832L41.8203 48.3246C41.845 48.3246 41.8697 48.3255 41.8943 48.3255C42.8698 48.3255 43.8408 48.0462 44.573 47.5256C45.7617 46.6796 46.2208 45.2359 45.6885 44.0139C45.4727 43.5181 45.1273 43.0845 44.6541 42.7156C43.8892 42.9284 43.0284 43.0871 42.0653 43.1918L42.0415 43.684Z" fill="url(#paint5_linear_12_136)"/>
<path d="M47.4703 35.1511C47.1222 34.8523 46.7407 34.6075 46.3353 34.4036C45.0956 34.6492 43.8285 34.7831 42.6011 34.9126C42.5544 34.9179 42.5059 34.9223 42.4592 34.9277L42.4354 35.4323C43.9254 35.6584 45.2797 35.951 46.1547 36.7031C46.6755 37.1509 46.9768 37.7495 46.9795 38.3445C46.9821 38.8456 46.7724 39.2952 46.3732 39.6464C45.5326 40.3842 44.1193 40.8817 42.164 41.1273C41.8847 41.1628 41.5948 41.1921 41.2935 41.2169C41.0203 41.2391 40.756 41.2675 40.5004 41.2994C39.9057 41.3739 39.3585 41.4723 38.8589 41.5965C37.805 41.859 36.9662 42.2323 36.3467 42.7156C35.8735 43.0845 35.5281 43.5173 35.3123 44.0139C34.7809 45.2359 35.24 46.6796 36.4278 47.5257C37.1591 48.0462 38.131 48.3256 39.1065 48.3256C39.1311 48.3256 39.1558 48.3247 39.1805 48.3247L39.0835 46.2832C38.5311 46.2779 37.9751 46.128 37.5988 45.8602C37.1979 45.5747 37.0261 45.1614 37.1697 44.8315C37.3724 44.366 38.0042 43.9713 38.9602 43.684C39.4069 43.5501 39.9242 43.4401 40.5022 43.3568C40.8062 43.3133 41.1252 43.277 41.4609 43.2495C41.6679 43.2326 41.8688 43.2122 42.0671 43.1909C43.0302 43.0863 43.8911 42.9276 44.6559 42.7147C45.9344 42.3591 46.946 41.8519 47.7082 41.1823C48.5523 40.441 49.0149 39.4291 49.0087 38.333C48.9999 37.1438 48.4404 35.9839 47.4703 35.1511Z" fill="url(#paint6_linear_12_136)"/>
<path d="M50.1066 23.7122C49.6475 23.3902 49.0158 23.5046 48.6959 23.9667C48.376 24.4287 48.4897 25.0645 48.9488 25.3864C50.5807 26.5295 51.7076 28.477 50.7049 29.989C50.0185 31.0239 48.384 31.8832 46.2217 32.3461C45.0409 32.5988 43.832 32.731 42.557 32.8658C42.5015 32.872 42.446 32.8773 42.3905 32.8835C41.7701 32.9482 41.1339 33.0156 40.4995 33.0972C40.2819 33.1256 40.0651 33.1549 39.8484 33.1868C39.621 33.2205 39.3919 33.2524 39.1628 33.2843C38.9311 33.3172 38.6994 33.35 38.4667 33.3837C37.1327 33.5805 35.8013 33.8297 34.6637 34.4026C34.2584 34.6066 33.8769 34.8513 33.5288 35.1502C32.5596 35.9838 31.9991 37.1428 31.993 38.3321C31.9868 39.4281 32.4494 40.44 33.2935 41.1814C34.0557 41.8509 35.0664 42.3582 36.3458 42.7138C36.9653 42.2305 37.8041 41.8571 38.858 41.5946L38.8359 41.1255C36.8807 40.8798 35.4673 40.3824 34.6267 39.6445C34.2276 39.2934 34.0178 38.8437 34.0205 38.3427C34.024 37.7468 34.3245 37.1491 34.8452 36.7012C35.7211 35.9492 37.0745 35.6566 38.5645 35.4304C38.8536 35.387 39.147 35.3453 39.443 35.3036C39.6765 35.2708 39.91 35.238 40.1427 35.2034C40.2607 35.1857 40.3806 35.1706 40.4995 35.1546C41.148 35.0668 41.8098 34.9941 42.4583 34.9258C42.5059 34.9205 42.5535 34.9161 42.6002 34.9108C43.8285 34.7822 45.0947 34.6474 46.3344 34.4017C46.4367 34.3813 46.5398 34.3618 46.642 34.3396C48.562 33.9291 51.1173 33.036 52.3888 31.1205C53.9149 28.8228 52.9553 25.7066 50.1066 23.7122Z" fill="url(#paint7_linear_12_136)"/>
<path d="M123.289 14.1562L123.457 14.309V15.2426L123.307 15.3763C121.943 15.4145 121.096 15.4851 120.768 15.5863C120.44 15.6875 120.207 15.8555 120.071 16.0904C119.935 16.3252 119.856 16.7854 119.838 17.4708C119.819 18.1562 119.785 20.0942 119.735 23.2808V32.0636C119.735 33.3333 119.754 34.7691 119.791 36.3691C119.828 37.9691 119.905 38.9008 120.024 39.1605C120.142 39.4201 120.356 39.6111 120.665 39.7314C120.975 39.8516 121.857 39.9318 123.307 39.97L123.457 40.1037V41.0373L123.289 41.1901C121.268 41.0755 119.506 41.0182 118.005 41.0182C116.987 41.0182 115.257 41.0755 112.814 41.1901L112.646 41.0373V40.1228L112.796 39.97C114.16 39.9318 115.007 39.8631 115.335 39.76C115.663 39.6588 115.896 39.4908 116.032 39.2559C116.168 39.0211 116.249 38.5552 116.275 37.8564C116.299 37.1576 116.331 35.2273 116.368 32.0655V18.0818L109.949 31.8364C108.336 35.2789 106.928 38.517 105.726 41.5528H105C104.305 39.9146 103.734 38.6068 103.289 37.6273L94.3953 18.7099V32.0273C94.3953 33.2722 94.4102 34.7042 94.4419 36.3232C94.4736 37.9423 94.55 38.8798 94.675 39.1337C94.798 39.3877 95.0162 39.5786 95.3257 39.7046C95.6352 39.8325 96.517 39.907 97.9676 39.9337L98.1167 40.0865V41.001L97.9489 41.1729L96.7576 41.1156C95.5289 41.0526 94.4755 41.0201 93.5954 41.0201C93.1983 41.0201 91.7161 41.0698 89.1487 41.1729L88.9996 41.0201V40.1056L89.1487 39.9337C90.5135 39.9089 91.3562 39.8459 91.6788 39.7428C92.0013 39.6416 92.2344 39.4698 92.3761 39.2292C92.5178 38.9886 92.5998 38.538 92.6185 37.8774C92.6371 37.2168 92.6651 35.2674 92.7024 32.0292V23.3037C92.7024 22.1486 92.6875 20.7414 92.6558 19.0842C92.6241 17.4269 92.5495 16.4684 92.432 16.2068C92.3146 15.9472 92.1002 15.7524 91.7907 15.6264C91.4812 15.5004 90.5993 15.424 89.1487 15.3973L88.9996 15.2446V14.3281L89.1674 14.1562C90.0232 14.2193 91.1773 14.2517 92.6278 14.2517C93.9926 14.2517 95.1821 14.2212 96.2001 14.1562C97.2423 16.6212 98.2398 18.8493 99.1963 20.8445L106.248 35.6664L112.611 22.0818C114.336 18.4121 115.495 15.7696 116.09 14.1562C117.281 14.2193 118.452 14.2517 119.606 14.2517C120.647 14.2517 121.874 14.2212 123.289 14.1562Z" fill="#333333"/>
<path d="M125.688 14.2333L125.837 14.0996C130.092 14.176 132.814 14.2142 134.006 14.2142C138.074 14.2142 141.695 14.176 144.87 14.0996L144.963 14.2333C144.654 15.4533 144.424 17.3645 144.275 19.9688L144.163 20.1215H143.251L143.084 19.9688C143.097 19.8542 143.102 19.7531 143.102 19.6633C143.102 18.5846 143.022 17.5554 142.86 16.576C142.079 16.2208 140.995 15.9879 139.614 15.881C138.231 15.7741 137.192 15.7187 136.498 15.7187C135.518 15.7187 134.267 15.7893 132.74 15.9287L132.665 18.976L132.609 22.4624L132.553 26.3306C133.892 26.407 135.126 26.4452 136.256 26.4452C137.397 26.4452 138.352 26.407 139.122 26.3306C139.89 26.2542 140.341 26.1759 140.47 26.0919C140.6 26.0098 140.699 25.8514 140.768 25.6165C140.835 25.3817 140.895 24.9654 140.945 24.3678L141.02 23.186L141.169 23.0332H142.025L142.174 23.186C142.15 24.5702 142.118 25.9621 142.081 27.3578L142.174 31.6442L142.025 31.7969H141.169L141.02 31.6442L140.889 30.5005C140.777 29.6108 140.697 29.0819 140.647 28.9101C140.596 28.7382 140.483 28.5893 140.302 28.4633C140.121 28.3373 139.661 28.2342 138.917 28.1578C138.173 28.0814 137.149 28.0432 135.848 28.0432C135.128 28.0432 134.03 28.0757 132.555 28.1387C132.494 29.206 132.462 30.9836 132.462 33.4733C132.462 36.1406 132.494 38.1034 132.555 39.3597H135.978C138.993 39.3597 140.878 39.3215 141.633 39.2451C142.39 39.1687 143.11 38.9855 143.792 38.6933C143.904 38.4012 144.087 37.7253 144.34 36.6637C144.594 35.6041 144.741 34.9396 144.778 34.6723L144.965 34.5387H145.858L146.007 34.6723C145.895 35.2184 145.787 36.1711 145.681 37.5306C145.575 38.89 145.522 40.0528 145.522 41.0169L145.392 41.1697C143.022 41.0933 139.922 41.0551 136.09 41.0551L131.03 41.0169C129.852 41.0169 128.623 41.0666 127.346 41.1697L127.197 41.0169V40.3888L127.346 40.1979C128.077 39.816 128.496 39.5792 128.602 39.4838C128.707 39.3883 128.795 38.2771 128.863 36.1501C128.931 34.0232 128.966 32.4003 128.966 31.2833V24.2934L128.947 19.9688C128.947 19.0294 128.934 18.2638 128.91 17.6738C128.886 17.0838 128.841 16.6619 128.78 16.406C128.718 16.1521 128.645 15.9745 128.565 15.8734C128.485 15.7722 128.354 15.6862 128.174 15.6156C127.993 15.545 127.687 15.4858 127.253 15.4342L125.839 15.3197L125.69 15.186V14.2333H125.688Z" fill="#333333"/>
<path d="M148.162 14.2324L148.312 14.0987C150.458 14.1999 151.921 14.2515 152.702 14.2515L161.409 14.0605C163.889 14.0605 165.923 14.2992 167.512 14.7746C169.1 15.25 170.51 16.0768 171.744 17.251C172.978 18.4252 173.914 19.7923 174.554 21.3464C175.191 22.9025 175.512 24.5636 175.512 26.3278C175.512 28.0424 175.221 29.7378 174.638 31.4142C174.054 33.0906 173.226 34.5932 172.154 35.9201C171.082 37.2471 169.859 38.3182 168.489 39.1297C167.118 39.943 165.744 40.4853 164.368 40.7583C162.992 41.0313 161.585 41.1669 160.145 41.1669C159.178 41.1669 157.354 41.1287 154.675 41.0523C153.795 41.0275 153.211 41.0142 152.926 41.0142C152.07 41.0142 151.034 41.0638 149.82 41.1669L149.671 41.0142V40.386L149.82 40.1951C150.551 39.8132 150.97 39.5765 151.077 39.481C151.181 39.3855 151.269 38.2743 151.338 36.1473C151.405 34.0204 151.44 32.3975 151.44 31.2805V24.2925L151.421 19.9679C151.421 19.0286 151.408 18.2629 151.384 17.6729C151.36 17.083 151.315 16.661 151.254 16.4052C151.192 16.1512 151.119 15.9737 151.039 15.8725C150.959 15.7713 150.829 15.6854 150.648 15.6147C150.469 15.5441 150.161 15.4849 149.727 15.4333L148.313 15.3188L148.164 15.1851V14.2324H148.162ZM155.046 39.0953C156.312 39.3492 157.768 39.4772 159.418 39.4772C162.308 39.4772 164.618 38.9827 166.348 37.9917C168.078 37.0008 169.371 35.5345 170.226 33.5908C171.082 31.6471 171.511 29.4572 171.511 27.019C171.511 23.4238 170.575 20.6362 168.701 18.6543C166.829 16.6725 163.876 15.6815 159.845 15.6815C158.184 15.6815 156.582 15.8095 155.046 16.0634C154.947 18.1465 154.897 20.4968 154.897 23.1125V29.0944L154.934 34.6963C154.934 35.7865 154.971 37.2547 155.046 39.0953Z" fill="#333333"/>
<path d="M178.189 14.0996L180.514 14.176C182.04 14.2275 183.039 14.2524 183.511 14.2524C183.932 14.2524 185.713 14.2027 188.85 14.0996L189 14.2333V15.186L188.85 15.3197C187.995 15.3445 187.335 15.3827 186.868 15.4342C186.402 15.4858 186.065 15.5812 185.854 15.7206C185.644 15.86 185.504 16.1865 185.435 16.702C185.366 17.2156 185.332 17.9316 185.332 18.8461L185.295 23.228V32.0489L185.314 35.7644C185.327 37.2002 185.362 38.1262 185.425 38.5463C185.487 38.9663 185.576 39.2451 185.696 39.3845C185.813 39.5238 186.041 39.6422 186.374 39.7377C186.71 39.8331 187.534 39.9057 188.849 39.9573L188.998 40.0718V41.0246L188.849 41.1773C188.787 41.1773 187.694 41.1391 185.575 41.0627C184.695 41.0379 184.005 41.0246 183.509 41.0246C183.125 41.0246 181.35 41.0742 178.188 41.1773L178.038 41.0246V40.0718L178.188 39.9573C179.342 39.9076 180.11 39.8427 180.494 39.7663C180.878 39.69 181.135 39.5926 181.266 39.4704C181.396 39.3501 181.501 39.0923 181.583 38.699C181.663 38.3057 181.71 37.4293 181.723 36.0699L181.741 32.0508V23.2299L181.704 19.5144C181.691 18.0671 181.657 17.1335 181.601 16.7134C181.545 16.2934 181.458 16.0146 181.34 15.8753C181.223 15.7359 180.995 15.6213 180.662 15.5316C180.326 15.4438 179.502 15.3731 178.188 15.3216L178.038 15.1879V14.2333L178.189 14.0996Z" fill="#333333"/>
<defs>
<linearGradient id="paint0_linear_12_136" x1="40.4998" y1="55.3124" x2="40.4998" y2="12.2607" gradientUnits="userSpaceOnUse">
<stop stop-color="#4FBFA5"/>
<stop offset="1" stop-color="#006A65"/>
</linearGradient>
<radialGradient id="paint1_radial_12_136" cx="0" cy="0" r="1" gradientUnits="userSpaceOnUse" gradientTransform="translate(39.3103 4.50102) scale(4.80728 4.8382)">
<stop stop-color="#4FBFA5"/>
<stop offset="1" stop-color="#00868A"/>
</radialGradient>
<linearGradient id="paint2_linear_12_136" x1="40.4998" y1="23.0817" x2="81.0001" y2="23.0817" gradientUnits="userSpaceOnUse">
<stop stop-color="#4FBFA5"/>
<stop offset="1" stop-color="#00868A"/>
</linearGradient>
<linearGradient id="paint3_linear_12_136" x1="-0.000391405" y1="23.0817" x2="40.4998" y2="23.0817" gradientUnits="userSpaceOnUse">
<stop stop-color="#4FBFA5"/>
<stop offset="1" stop-color="#00868A"/>
</linearGradient>
<linearGradient id="paint4_linear_12_136" x1="27.8893" y1="28.9661" x2="38.467" y2="28.9661" gradientUnits="userSpaceOnUse">
<stop stop-color="#4FBFA5"/>
<stop offset="1" stop-color="#00868A"/>
</linearGradient>
<linearGradient id="paint5_linear_12_136" x1="41.8201" y1="45.5204" x2="45.9074" y2="45.5204" gradientUnits="userSpaceOnUse">
<stop stop-color="#00868A"/>
<stop offset="1" stop-color="#4FBFA5"/>
</linearGradient>
<linearGradient id="paint6_linear_12_136" x1="35.0922" y1="41.3643" x2="49.0061" y2="41.3643" gradientUnits="userSpaceOnUse">
<stop stop-color="#00868A"/>
<stop offset="1" stop-color="#4FBFA5"/>
</linearGradient>
<linearGradient id="paint7_linear_12_136" x1="31.9936" y1="33.1222" x2="53.1103" y2="33.1222" gradientUnits="userSpaceOnUse">
<stop stop-color="#4FBFA5"/>
<stop offset="1" stop-color="#00868A"/>
</linearGradient>
</defs>
</svg>

<svg xmlns="http://www.w3.org/2000/svg" width="189" height="56" fill="none"><path fill="url(#a)" d="m39.455 54.094-1.93-40.464c-.035-.743.442-1.37 1.045-1.37h3.858c.603 0 1.08.627 1.045 1.37l-1.93 40.464c-.075 1.624-2.011 1.624-2.088 0"/><path fill="url(#b)" d="M40.5 10.005c2.655 0 4.807-2.167 4.807-4.839S43.155.328 40.499.328s-4.807 2.166-4.807 4.838 2.152 4.839 4.807 4.839"/><path fill="#00868A" d="M43.584 13.81h-6.169a1.15 1.15 0 0 1-1.145-1.153 1.15 1.15 0 0 1 1.145-1.153h6.169a1.15 1.15 0 0 1 1.145 1.153 1.15 1.15 0 0 1-1.145 1.153"/><path fill="url(#c)" d="M80.53 24.61 51.98 13.376a.73.73 0 0 0-.78.15c-2.787 2.686-6.946 3.505-10.074 3.705q-.314.02-.626.02v8.767c2.005 0 4.011.608 5.732 1.822 1.332.94 2.622 1.904 3.758 2.78a10.65 10.65 0 0 0 9.358 1.83.747.747 0 0 0 .217-1.337l-8.472-5.48c-.771-.522-.079-1.707.75-1.283l10.972 6.63c.163.083.351.104.527.056l5.776-1.55c.658-.177.751-1.078.143-1.386L54.96 21.853c-.838-.425-.28-1.698.597-1.362l17.904 7.494a.74.74 0 0 0 .536-.003l6.534-1.984c.625-.25.625-1.14 0-1.389"/><path fill="url(#d)" d="M39.873 17.232c-3.128-.2-7.287-1.019-10.074-3.704a.73.73 0 0 0-.779-.15L.47 24.608c-.626.248-.626 1.14-.002 1.387l6.534 1.984c.172.069.363.07.536.004l17.904-7.495c.876-.336 1.434.938.597 1.363l-14.3 6.247c-.609.309-.516 1.21.142 1.386l5.776 1.55a.74.74 0 0 0 .527-.056l10.973-6.63c.828-.424 1.521.761.75 1.284l-8.473 5.48a.747.747 0 0 0 .217 1.337c3.233.897 6.697.221 9.359-1.83a112 112 0 0 1 3.757-2.78 9.93 9.93 0 0 1 5.732-1.822V17.25q-.312 0-.626-.019"/><path fill="url(#e)" d="M38.442 32.866c-1.274-.134-2.483-.267-3.665-.52-2.162-.463-3.796-1.322-4.483-2.357-1.003-1.512.124-3.46 1.756-4.603.46-.322.573-.956.253-1.42a1.01 1.01 0 0 0-1.41-.254c-2.85 1.995-3.81 5.11-2.285 7.41 1.272 1.917 3.827 2.809 5.747 3.22q.155.032.308.062c1.138-.574 2.469-.823 3.803-1.02z"/><path fill="url(#f)" d="M42.042 43.684c.956.286 1.587.682 1.79 1.148.144.33-.03.743-.43 1.028-.376.268-.932.417-1.485.423l-.097 2.042h.074c.976 0 1.947-.279 2.679-.8 1.189-.845 1.648-2.29 1.115-3.511a3.3 3.3 0 0 0-1.034-1.298 16 16 0 0 1-2.589.476z"/><path fill="url(#g)" d="M47.47 35.151a5.6 5.6 0 0 0-1.135-.747c-1.24.245-2.507.38-3.734.509l-.142.015-.024.504c1.49.226 2.845.519 3.72 1.271.52.448.822 1.046.825 1.641.002.502-.208.951-.607 1.302-.84.738-2.254 1.236-4.209 1.481q-.42.053-.87.09-.41.033-.794.082a14 14 0 0 0-1.641.297q-1.582.394-2.512 1.12-.711.552-1.035 1.298c-.531 1.222-.072 2.666 1.116 3.512.731.52 1.703.8 2.678.8l.075-.001-.097-2.042c-.553-.005-1.109-.155-1.485-.423-.401-.285-.573-.699-.43-1.029.203-.465.835-.86 1.791-1.147.447-.134.964-.244 1.542-.327q.456-.066.959-.108.31-.025.606-.058a16 16 0 0 0 2.589-.476c1.278-.356 2.29-.863 3.052-1.533.844-.741 1.307-1.753 1.3-2.849-.008-1.19-.568-2.35-1.538-3.182"/><path fill="url(#h)" d="M50.107 23.712a1.01 1.01 0 0 0-1.411.255 1.024 1.024 0 0 0 .253 1.42c1.632 1.142 2.759 3.09 1.756 4.602-.686 1.035-2.321 1.894-4.483 2.357-1.181.253-2.39.385-3.665.52l-.166.017a79 79 0 0 0-1.892.214q-.326.043-.65.09-.342.05-.686.097l-.696.1c-1.334.197-2.666.446-3.803 1.019a5.6 5.6 0 0 0-1.135.747c-.97.834-1.53 1.993-1.536 3.182-.006 1.096.456 2.108 1.3 2.85.763.669 1.773 1.176 3.053 1.532q.93-.725 2.512-1.12l-.022-.468c-1.955-.246-3.369-.744-4.21-1.481-.398-.352-.608-.801-.605-1.302.003-.596.303-1.194.824-1.642.876-.752 2.23-1.044 3.72-1.27q.434-.066.878-.127l.7-.1q.178-.026.356-.05c.649-.087 1.31-.16 1.96-.228l.141-.015c1.228-.129 2.495-.264 3.734-.51l.308-.061c1.92-.41 4.475-1.304 5.747-3.22 1.526-2.297.566-5.413-2.282-7.408"/><path fill="#333" d="m123.289 14.156.168.153v.934l-.15.133q-2.046.06-2.539.21-.493.152-.697.504-.205.352-.233 1.38-.028 1.03-.103 5.81v8.784q0 1.905.056 4.305.055 2.401.233 2.791.177.39.641.571.466.18 2.642.239l.15.134v.933l-.168.153a95 95 0 0 0-5.284-.172q-1.527 0-5.191.172l-.168-.153v-.914l.15-.153q2.046-.056 2.539-.21.493-.152.697-.504.204-.351.243-1.4.037-1.048.093-5.79V18.082l-6.419 13.754a174 174 0 0 0-4.223 9.717H105a177 177 0 0 0-1.711-3.926L94.395 18.71v13.317q0 1.867.047 4.296t.233 2.81q.186.383.65.572.466.19 2.643.229l.149.153V41l-.168.172-1.191-.057a63 63 0 0 0-3.163-.096q-.596 0-4.446.153l-.15-.153v-.914l.15-.172q2.046-.037 2.53-.191.484-.152.697-.514.214-.36.242-1.352.03-.99.084-5.848v-8.725q.001-1.733-.046-4.22-.048-2.485-.224-2.877-.177-.391-.641-.58-.466-.19-2.642-.23l-.15-.152v-.917l.168-.172q1.284.095 3.46.096 2.048.002 3.573-.096a157 157 0 0 0 2.996 6.688l7.052 14.822 6.363-13.584q2.587-5.505 3.479-7.926 1.786.095 3.516.096 1.561.002 3.683-.096M125.688 14.233l.149-.133q6.382.114 8.169.114 6.102 0 10.864-.114l.093.133q-.464 1.83-.688 5.736l-.112.152h-.912l-.167-.152q.019-.172.018-.306 0-1.618-.242-3.087-1.173-.534-3.246-.695-2.075-.161-3.116-.162-1.469 0-3.758.21l-.075 3.047-.056 3.486-.056 3.869q2.008.114 3.703.114 1.711 0 2.866-.114 1.153-.114 1.348-.24.195-.122.298-.475.101-.351.177-1.248l.075-1.182.149-.153h.856l.149.153a456 456 0 0 1-.093 4.172l.093 4.286-.149.153h-.856l-.149-.153-.131-1.143q-.168-1.335-.242-1.59a.83.83 0 0 0-.345-.448q-.27-.19-1.385-.305-1.117-.115-3.069-.115-1.08 0-3.293.096-.092 1.6-.093 5.334 0 4.002.093 5.887h3.423q4.522 0 5.655-.115a7.3 7.3 0 0 0 2.159-.552q.168-.437.548-2.03.382-1.589.438-1.99l.187-.134h.893l.149.133q-.168.82-.326 2.859a46 46 0 0 0-.159 3.486l-.13.153q-3.555-.115-9.302-.115l-5.06-.038q-1.768 0-3.684.153l-.149-.153v-.628l.149-.191q1.097-.572 1.256-.714.158-.144.261-3.334t.103-4.867v-6.99l-.019-4.324q0-1.41-.037-2.295-.037-.884-.13-1.268-.094-.38-.215-.533-.12-.151-.391-.257-.27-.105-.921-.182l-1.414-.114-.149-.134v-.953zM148.162 14.232l.15-.133q3.219.151 4.39.152l8.707-.19q3.72 0 6.103.714 2.381.714 4.232 2.476a11.8 11.8 0 0 1 2.81 4.095q.957 2.335.958 4.982 0 2.572-.874 5.086a14.9 14.9 0 0 1-2.484 4.506q-1.609 1.991-3.665 3.21t-4.121 1.628a21.6 21.6 0 0 1-4.223.409q-1.451 0-5.47-.115a81 81 0 0 0-1.749-.038q-1.284 0-3.106.153l-.149-.153v-.628l.149-.19q1.096-.573 1.257-.715.157-.144.261-3.334.101-3.191.102-4.866v-6.988l-.019-4.325q0-1.41-.037-2.295-.037-.884-.13-1.268-.094-.38-.215-.533-.12-.151-.391-.257-.27-.104-.921-.182l-1.414-.114-.149-.134v-.953zm6.884 24.863q1.898.381 4.372.382 4.335 0 6.93-1.485t3.878-4.401q1.285-2.915 1.285-6.572 0-5.392-2.81-8.365t-8.856-2.972q-2.493 0-4.799.381a150 150 0 0 0-.149 7.05v5.981l.037 5.602q0 1.637.112 4.4M178.189 14.1l2.325.076q2.289.076 2.997.076.632 0 5.339-.152l.15.133v.953l-.15.134q-1.282.037-1.982.114-.698.078-1.014.287-.315.208-.419.981-.103.772-.103 2.144l-.037 4.382v8.82l.019 3.716q.018 2.153.111 2.782.092.63.271.839.177.209.678.353.503.142 2.475.22l.149.114v.953l-.149.152q-.094 0-3.274-.114a79 79 0 0 0-2.066-.038q-.577 0-5.321.152l-.15-.152v-.953l.15-.115q1.73-.075 2.306-.19.576-.114.772-.297.195-.18.317-.771.12-.59.14-2.63l.018-4.018V23.23l-.037-3.716q-.02-2.17-.103-2.8-.084-.63-.261-.839-.177-.21-.678-.343-.504-.133-2.474-.21l-.15-.134v-.955z"/><defs><linearGradient id="a" x1="40.5" x2="40.5" y1="55.312" y2="12.261" gradientUnits="userSpaceOnUse"><stop stop-color="#4FBFA5"/><stop offset="1" stop-color="#006A65"/></linearGradient><linearGradient id="c" x1="40.5" x2="81" y1="23.082" y2="23.082" gradientUnits="userSpaceOnUse"><stop stop-color="#4FBFA5"/><stop offset="1" stop-color="#00868A"/></linearGradient><linearGradient id="d" x1="0" x2="40.5" y1="23.082" y2="23.082" gradientUnits="userSpaceOnUse"><stop stop-color="#4FBFA5"/><stop offset="1" stop-color="#00868A"/></linearGradient><linearGradient id="e" x1="27.889" x2="38.467" y1="28.966" y2="28.966" gradientUnits="userSpaceOnUse"><stop stop-color="#4FBFA5"/><stop offset="1" stop-color="#00868A"/></linearGradient><linearGradient id="f" x1="41.82" x2="45.907" y1="45.52" y2="45.52" gradientUnits="userSpaceOnUse"><stop stop-color="#00868A"/><stop offset="1" stop-color="#4FBFA5"/></linearGradient><linearGradient id="g" x1="35.092" x2="49.006" y1="41.364" y2="41.364" gradientUnits="userSpaceOnUse"><stop stop-color="#00868A"/><stop offset="1" stop-color="#4FBFA5"/></linearGradient><linearGradient id="h" x1="31.994" x2="53.11" y1="33.122" y2="33.122" gradientUnits="userSpaceOnUse"><stop stop-color="#4FBFA5"/><stop offset="1" stop-color="#00868A"/></linearGradient><radialGradient id="b" cx="0" cy="0" r="1" gradientTransform="matrix(4.80728 0 0 4.8382 39.31 4.501)" gradientUnits="userSpaceOnUse"><stop stop-color="#4FBFA5"/><stop offset="1" stop-color="#00868A"/></radialGradient></defs></svg>
